X: 25374
T: Marcel Aucoin
R: jig
M: 6/8
K: Bdorian
|:Bag f2e|fBB Bdc|Bag f2a|cAA ABc|
Bag f2e|fBB BcB|ABc faf|efa cBA:|
|:FBc d2B|d2e fdB|FBc d2f|e2f ecA|
FBc d2B|d2e fdf|ece aga|efd cBA:|

